coreui/free/cil-hand-point-right.svg

<svg xmlns="http://www.w3.org/2000/svg" viewBox="0 0 512 512">
  <path fill="var(--ci-primary-color, currentColor)" d="M273.919,472h-159.7a24,24,0,0,1-12.349-3.421L16,417.059V272.891L263.244,49.574a24,24,0,0,1,34.149,2.007A90.409,90.409,0,0,1,286.6,181.088L264,199.582V224H444a52,52,0,0,1,0,104H332.162L297.043,454.423A24.071,24.071,0,0,1,273.919,472ZM116.432,440H267.838l40-144H444a20,20,0,0,0,0-40H232V184.418l34.34-28.1a58.437,58.437,0,0,0,11.91-77.18L48,287.109V398.941ZM284.693,73.321l-.023.02.023-.02Z" class="ci-primary"/>
</svg>

<svg viewBox="0 0 512 512" xmlns="http://www.w3.org/2000/svg"><path d="M273.919 472h-159.7 -.001c-4.36-.01-8.62-1.19-12.35-3.43l-85.87-51.52V272.88l247.24-223.32v0c9.83-8.89 25.01-8.12 33.89 1.72 .08.09.16.18.25.28v-.001c32.87 37.57 29.06 94.69-8.51 127.57 -.76.65-1.52 1.3-2.29 1.93l-22.6 18.494v24.41h180v0c28.71 0 52 23.28 52 52 0 28.71-23.29 52-52 52H332.13L297.01 454.38v0c-2.91 10.37-12.36 17.55-23.13 17.57Zm-157.49-32h151.4l40-144h136.16v0c11.04 0 20-8.96 20-20 0-11.05-8.96-20-20-20h-212v-71.582l34.34-28.1v-.001c23.1-18.91 28.23-52.19 11.91-77.18L47.98 287.1V398.93ZM284.68 73.32l-.03.02 .02-.02Z"/></svg>
